X:76
T:Le bateau chargé de blé
R:Chanson
O:France
B:Le livre des Chansons (Henri Davenson) n°76
Z:<anamnese@caramail.com> -- http://anamnese.fr.st
M:2/4
L:1/8
Q:1/4=80
K:G
G G/ G/ |G B G B | A2 G G/ G/ | G B G B | A2 A B/ c/ |!
d d d d | B G/ A/ B B | B A/ G/ A A/-B/ | A G/ A/ B>B | B d B-A | G4 ||
W:Devant Bordeaux est arrivé (2x)
W:Un beau bateau chargé de blé ! (2x)
W:Nous irons sur l'eau nous y promener, nous irons jouer dans l'île.
W:
W:Trois dames le vont marchander : /.../

